packages/icons/svg/Outline/volume-down.svg

<svg fill="none" height="24" viewBox="0 0 24 24" width="24" xmlns="http://www.w3.org/2000/svg"><path clip-rule="evenodd" d="m9.89902 14.6036 5.10098 3.498v-12.20298l-5.10098 3.498c-.167.113-.364.175-.566.175h-4.333v4.85698h4.333c.202 0 .399.062.566.175zm5.53598-11.42895c.306-.21.703-.233 1.031-.059.328.173.534.513.534.884v16.00005c0 .372-.206.712-.534.885-.146.077-.306.115-.466.115-.198 0-.396-.058-.565-.174l-6.412-4.397h-5.023c-.552 0-1-.447-1-1v-6.85705c0-.553.448-1 1-1h5.023zm3.9383 5.0465c.429-.345 1.06-.278 1.406.152 1.636 2.03405 1.636 5.22005 0 7.25405-.198.245-.488.373-.78.373-.22 0-.441-.072-.626-.221-.43-.346-.499-.975-.153-1.406 1.036-1.286 1.036-3.4601 0-4.74605-.346-.431-.277-1.06.153-1.406z" fill="#6b7280" fill-rule="evenodd"/></svg>

<svg width="24" height="24" viewBox="0 0 24 24" fill="none" xmlns="http://www.w3.org/2000/svg">
<g id="Icon/Outline/volume-down">
<path id="Mask" fill-rule="evenodd" clip-rule="evenodd" d="M9.899 14.6036L15 18.1016V5.89861L9.899 9.39661C9.732 9.50961 9.535 9.57161 9.333 9.57161H5V14.4286H9.333C9.535 14.4286 9.732 14.4906 9.899 14.6036ZM15.435 3.17461C15.741 2.96461 16.138 2.94161 16.466 3.11561C16.794 3.28861 17 3.62861 17 3.99961V19.9996C17 20.3716 16.794 20.7116 16.466 20.8846C16.32 20.9616 16.16 20.9996 16 20.9996C15.802 20.9996 15.604 20.9416 15.435 20.8256L9.023 16.4286H4C3.448 16.4286 3 15.9816 3 15.4286V8.57161C3 8.01861 3.448 7.57161 4 7.57161H9.023L15.435 3.17461ZM19.3733 8.22101C19.8023 7.87601 20.4333 7.94301 20.7793 8.37301C22.4153 10.407 22.4153 13.593 20.7793 15.627C20.5813 15.872 20.2913 16 19.9993 16C19.7793 16 19.5583 15.928 19.3733 15.779C18.9433 15.433 18.8743 14.804 19.2203 14.373C20.2563 13.087 20.2563 10.913 19.2203 9.62701C18.8743 9.19601 18.9433 8.56701 19.3733 8.22101Z" fill="#000000"/>
</g>
</svg>
